F[ERK1
CUT[ZWISCHEN BERG UND TIEFEM THAL]
REG[Europa, Mitteleuropa, Deutschland]
KEY[E0170A 16  G 3/4]
MEL[  -5_.-51__3__  3__2_1_2__
    -5_-7_2__4__  4__3__0__
    5_.43__5__  5__4_3_4__
    4_.32__4__  4__3_2_3__
    1_3_5__3_1_  2__1__0__
    5_.43__5__  5__4_3_4__
    4_.32__4__  4__3_2_3__
    1_3_5__3_1_  2__1__0__ //] >>
FCT[erzaehlendes Volks - Lied, Sage, Tier - Maerchen, Scherz]
